X: 11374
Q: "Very slow."
M: 6/8
L: 1/16
K: D
[|\
=F4(ED) =c4(BA) | {A}^F6 z4z2 |]
[|\
d4(^cd) (^F2E2D2) | d4 (cd) e2c2A2 |\
d4(cd) (=F2E2D2) | d4(cd) e4 z2 |\
d4(cB) B4(cd) | (d2A2G2) (F2E2D2) |\
{DE}F4(ED) D4 (EF) | F2 B6 z4 |]


